frontend/src/assets/icons/mailbox.svg

<svg width="24" height="24" viewBox="0 0 24 24" fill="none" xmlns="http://www.w3.org/2000/svg">
<path d="M21.3333 0H2.66667C1.2 0 0 1.2 0 2.66667V21.3333C0 22.8 1.2 24 2.66667 24H21.3333C22.8 24 24 22.8 24 21.3333V2.66667C24 1.2 22.8 0 21.3333 0ZM21.3333 2.66667V14.6667H16.5867C16.1067 14.6667 15.68 14.92 15.44 15.3333C14.7467 16.5333 13.48 17.3333 12 17.3333C10.52 17.3333 9.25333 16.5333 8.56 15.3333C8.44366 15.1318 8.27661 14.9643 8.07545 14.8473C7.87428 14.7303 7.64602 14.6681 7.41333 14.6667H2.66667V2.66667H21.3333Z" fill="white"/>
</svg>

<svg width="24" height="24" fill="none" xmlns="http://www.w3.org/2000/svg"><path d="M21.333 0H2.667A2.675 2.675 0 0 0 0 2.667v18.666C0 22.8 1.2 24 2.667 24h18.666C22.8 24 24 22.8 24 21.333V2.667C24 1.2 22.8 0 21.333 0zm0 2.667v12h-4.746c-.48 0-.907.253-1.147.666-.693 1.2-1.96 2-3.44 2s-2.747-.8-3.44-2a1.334 1.334 0 0 0-1.147-.666H2.667v-12h18.666z" fill="#fff"/></svg>
